public/images/home/Notifications-1.svg

<svg width="32" height="32" viewBox="0 0 32 32" fill="none" xmlns="http://www.w3.org/2000/svg">
<g filter="url(#filter0_b_58_822)">
<rect width="32" height="32" rx="16" fill="#C3C3C3" fill-opacity="0.3" style="mix-blend-mode:luminosity"/>
<rect x="0.5" y="0.5" width="31" height="31" rx="15.5" stroke="url(#paint0_linear_58_822)"/>
<path fill-rule="evenodd" clip-rule="evenodd" d="M17.192 10.5376C16.888 9.28956 15.112 9.28956 14.808 10.5376C14.7626 10.7251 14.6736 10.8993 14.5482 11.0459C14.4228 11.1925 14.2645 11.3075 14.0863 11.3814C13.9081 11.4553 13.7149 11.4861 13.5225 11.4712C13.3302 11.4564 13.144 11.3963 12.9792 11.296C11.8816 10.6272 10.6256 11.8832 11.2944 12.9808C11.7264 13.6896 11.3432 14.6144 10.5368 14.8104C9.28802 15.1136 9.28802 16.8904 10.5368 17.1928C10.7244 17.2382 10.8986 17.3273 11.0452 17.4528C11.1919 17.5783 11.3068 17.7367 11.3806 17.915C11.4545 18.0933 11.4851 18.2866 11.4702 18.479C11.4552 18.6714 11.395 18.8576 11.2944 19.0224C10.6256 20.12 11.8816 21.376 12.9792 20.7072C13.144 20.6066 13.3301 20.5464 13.5226 20.5314C13.715 20.5164 13.9082 20.5471 14.0866 20.621C14.2649 20.6948 14.4233 20.8097 14.5488 20.9564C14.6743 21.103 14.7634 21.2772 14.8088 21.4648C15.112 22.7136 16.8888 22.7136 17.1912 21.4648C17.2368 21.2773 17.326 21.1032 17.4515 20.9567C17.5771 20.8101 17.7354 20.6953 17.9137 20.6215C18.092 20.5477 18.2851 20.517 18.4775 20.5318C18.6699 20.5467 18.856 20.6068 19.0208 20.7072C20.1184 21.376 21.3744 20.12 20.7056 19.0224C20.6053 18.8576 20.5452 18.6714 20.5303 18.479C20.5154 18.2867 20.5461 18.0935 20.6199 17.9152C20.6938 17.737 20.8086 17.5786 20.9551 17.4531C21.1017 17.3276 21.2757 17.2384 21.4632 17.1928C22.712 16.8896 22.712 15.1128 21.4632 14.8104C21.2756 14.7649 21.1014 14.6758 20.9548 14.5503C20.8082 14.4248 20.6933 14.2664 20.6194 14.0881C20.5456 13.9098 20.5149 13.7165 20.5299 13.5241C20.5449 13.3317 20.6051 13.1455 20.7056 12.9808C21.3744 11.8832 20.1184 10.6272 19.0208 11.296C18.8561 11.3965 18.6699 11.4567 18.4775 11.4717C18.285 11.4867 18.0918 11.456 17.9135 11.3822C17.7352 11.3083 17.5768 11.1934 17.4513 11.0468C17.3258 10.9001 17.2367 10.7259 17.1912 10.5384L17.192 10.5376ZM16 18.4016C16.6365 18.4016 17.247 18.1487 17.6971 17.6986C18.1472 17.2485 18.4 16.6381 18.4 16.0016C18.4 15.365 18.1472 14.7546 17.6971 14.3045C17.247 13.8544 16.6365 13.6016 16 13.6016C15.3635 13.6016 14.7531 13.8544 14.303 14.3045C13.8529 14.7546 13.6 15.365 13.6 16.0016C13.6 16.6381 13.8529 17.2485 14.303 17.6986C14.7531 18.1487 15.3635 18.4016 16 18.4016Z" fill="white"/>
</g>
<defs>
<filter id="filter0_b_58_822" x="-115.377" y="-115.377" width="262.754" height="262.754" filterUnits="userSpaceOnUse" color-interpolation-filters="sRGB">
<feFlood flood-opacity="0" result="BackgroundImageFix"/>
<feGaussianBlur in="BackgroundImageFix" stdDeviation="57.6885"/>
<feComposite in2="SourceAlpha" operator="in" result="effect1_backgroundBlur_58_822"/>
<feBlend mode="normal" in="SourceGraphic" in2="effect1_backgroundBlur_58_822" result="shape"/>
</filter>
<linearGradient id="paint0_linear_58_822" x1="2.24176" y1="-7.09502e-06" x2="17.4878" y2="35.0987" gradientUnits="userSpaceOnUse">
<stop stop-color="white" stop-opacity="0.25"/>
<stop offset="0.605751" stop-color="white" stop-opacity="0.02"/>
<stop offset="0.701033" stop-color="white" stop-opacity="0.02"/>
<stop offset="1" stop-color="white" stop-opacity="0.1"/>
</linearGradient>
</defs>
</svg>

<svg xmlns="http://www.w3.org/2000/svg" width="32" height="32" fill="none" xmlns:v="https://vecta.io/nano"><g filter="url(#B)"><rect width="32" height="32" rx="16" fill="#c3c3c3" fill-opacity=".3" style="mix-blend-mode:luminosity"/><rect x=".5" y=".5" width="31" height="31" rx="15.5" stroke="url(#A)"/><path fill-rule="evenodd" d="M17.192 10.538c-.304-1.248-2.08-1.248-2.384 0a1.226 1.226 0 0 1-1.829.758c-1.097-.669-2.353.587-1.685 1.685a1.227 1.227 0 0 1-.757 1.83c-1.249.303-1.249 2.08 0 2.382a1.225 1.225 0 0 1 .757 1.83c-.668 1.097.588 2.353 1.685 1.684a1.225 1.225 0 0 1 1.83.758c.303 1.249 2.08 1.249 2.382 0a1.227 1.227 0 0 1 1.83-.758c1.097.669 2.353-.587 1.685-1.685a1.228 1.228 0 0 1 .757-1.83c1.249-.302 1.249-2.08 0-2.382a1.226 1.226 0 0 1-.757-1.83c.668-1.097-.588-2.353-1.685-1.684a1.226 1.226 0 0 1-1.83-.758h.001zM16 18.402a2.4 2.4 0 1 0 0-4.8 2.4 2.4 0 0 0 0 4.8z" fill="#fff"/></g><defs><linearGradient id="A" x1="2.242" y1="0" x2="17.488" y2="35.099" gradientUnits="userSpaceOnUse"><stop stop-color="#fff" stop-opacity=".25"/><stop offset=".606" stop-color="#fff" stop-opacity=".02"/><stop offset=".701" stop-color="#fff" stop-opacity=".02"/><stop offset="1" stop-color="#fff" stop-opacity=".1"/></linearGradient><filter id="B" x="-115.377" y="-115.377" width="262.754" height="262.754" filterUnits="userSpaceOnUse" color-interpolation-filters="sRGB"><feFlood flood-opacity="0"/><feGaussianBlur stdDeviation="57.688"/><feComposite in2="SourceAlpha" operator="in"/><feBlend in="SourceGraphic"/></filter></defs></svg>
